X: 146201
M: C
L: 1/8
K: G
uD2 |:\
e>f (3(gec) d>BG>B |[1 A>BA>G F>ED2 :|[2 A>GA>B G2 ::\
ud2 |\
e2e2 e>fg>e | d>^cd>e d>BG2 |\
c2c2 B>cd>B |
e>f (3(gec) d>BG>B | A>GA>B G2 :|[K:=f]\
[K:C]\
uG2 |\
e2f2^f2g2 | a>ge>c G4 |\
ve2f2 ^f2g2 | b>af>d A4 |\
vd2e2 f2^f2 |
a>g^f>g b2a2 |\
a2g2 f2d2 | (^d4 e2)G2 |\
e2f2 ^f2g2 | a>ge>c G4 |\
ve2f2 ^f2g2 | b>af>d A4 |\
vb>db>d b>af>d | a>ca>c a>ge>c |\
(3ded A>d B>Ge>d | c>Ge>d "_D.C."c2 |]
|: "TRIO."uG2 |\
c2c>d e2e<g | d2d>e c2c>B |\
d>cd>e f2f2 | e>dA>d c>BA>B |\
c>AG>E G2c>e | (d4 "_D.C."c2) :|


